public/sports/rugby.svg

<svg width="45" height="45" viewBox="0 0 45 45" fill="none" xmlns="http://www.w3.org/2000/svg">
<path d="M39.0753 9.87764C38.9024 8.86105 38.4179 7.9233 37.6888 7.19415C36.9596 6.46499 36.0219 5.98048 35.0053 5.80764C29.5723 4.88639 19.3372 4.46186 11.84 11.9573C4.34278 19.4528 4.76903 29.6897 5.69028 35.1226C5.86311 36.1392 6.34763 37.077 7.07678 37.8061C7.80594 38.5353 8.74368 39.0198 9.76028 39.1926C11.6733 39.5181 13.6102 39.6837 15.5507 39.6876C20.9304 39.6876 27.6146 38.3522 32.9256 33.043C40.4296 25.5458 39.9965 15.3106 39.0753 9.87764ZM29.1581 6.67045C31.0414 6.6772 32.9208 6.84163 34.7767 7.16202C35.5114 7.28859 36.1889 7.63959 36.7161 8.16678C37.2433 8.69398 37.5943 9.37149 37.7209 10.1062C38.1838 12.721 38.3177 15.3834 38.1197 18.0314L26.8515 6.76155C27.5957 6.70311 28.3623 6.67045 29.1581 6.67045ZM9.98887 37.8383C9.25413 37.7117 8.57661 37.3607 8.04942 36.8335C7.52222 36.3063 7.17122 35.6288 7.04465 34.894C6.5818 32.2793 6.44784 29.6169 6.6459 26.9689L17.914 38.237C15.266 38.4351 12.6036 38.3011 9.98887 37.8383ZM31.9528 32.0701C29.8525 34.1722 25.8976 37.113 19.6534 38.0394L6.84356 25.2295C7.7734 18.9853 10.7107 15.0305 12.8128 12.9301C14.9148 10.8298 18.8697 7.89077 25.1139 6.96264L37.922 19.7708C36.9922 26.015 34.0548 29.9698 31.9528 32.0701ZM28.3657 16.5172C28.4943 16.6461 28.5665 16.8207 28.5665 17.0027C28.5665 17.1848 28.4943 17.3594 28.3657 17.4883L25.4164 20.4376L26.9925 22.012C27.1215 22.141 27.1939 22.316 27.1939 22.4984C27.1939 22.6809 27.1215 22.8558 26.9925 22.9848C26.8635 23.1138 26.6885 23.1863 26.5061 23.1863C26.3236 23.1863 26.1487 23.1138 26.0197 22.9848L24.4453 21.4105L21.2931 24.5626L22.8692 26.1387C22.9982 26.2677 23.0707 26.4427 23.0707 26.6251C23.0707 26.8076 22.9982 26.9825 22.8692 27.1115C22.7402 27.2406 22.5652 27.313 22.3828 27.313C22.2003 27.313 22.0254 27.2406 21.8964 27.1115L20.3203 25.5337L17.3709 28.4831C17.3084 28.5521 17.2325 28.6077 17.1478 28.6465C17.0631 28.6853 16.9715 28.7065 16.8784 28.7088C16.7852 28.7111 16.6926 28.6944 16.6062 28.6598C16.5197 28.6253 16.4411 28.5735 16.3753 28.5076C16.3094 28.4418 16.2577 28.3632 16.2231 28.2767C16.1885 28.1903 16.1718 28.0977 16.1741 28.0046C16.1764 27.9115 16.1976 27.8198 16.2364 27.7351C16.2752 27.6505 16.3308 27.5746 16.3998 27.512L19.3492 24.5626L17.7731 22.9883C17.7092 22.9244 17.6585 22.8486 17.624 22.7651C17.5894 22.6816 17.5716 22.5922 17.5716 22.5019C17.5716 22.4115 17.5894 22.3221 17.624 22.2386C17.6585 22.1552 17.7092 22.0793 17.7731 22.0155C17.837 21.9516 17.9128 21.9009 17.9963 21.8663C18.0797 21.8318 18.1692 21.814 18.2595 21.814C18.3498 21.814 18.4393 21.8318 18.5227 21.8663C18.6062 21.9009 18.682 21.9516 18.7459 22.0155L20.322 23.5915L23.4725 20.4376L21.8964 18.8615C21.7674 18.7325 21.6949 18.5576 21.6949 18.3751C21.6949 18.1927 21.7674 18.0177 21.8964 17.8887C22.0254 17.7597 22.2003 17.6873 22.3828 17.6873C22.5652 17.6873 22.7402 17.7597 22.8692 17.8887L24.4436 19.4648L27.3947 16.5155C27.5238 16.3871 27.6985 16.3152 27.8806 16.3155C28.0626 16.3159 28.2371 16.3884 28.3657 16.5172Z" fill="white" stroke="black" stroke-width="0.5"/>
</svg>

<svg xmlns="http://www.w3.org/2000/svg" width="45" height="45" fill="none"><path fill="#fff" stroke="#000" stroke-width=".5" d="M39.08 9.88A4.97 4.97 0 0 0 35 5.8c-5.44-.92-15.67-1.35-23.17 6.15-7.5 7.5-7.07 17.73-6.15 23.16a4.97 4.97 0 0 0 4.07 4.07c1.91.33 3.85.5 5.8.5 5.37 0 12.05-1.34 17.37-6.65 7.5-7.5 7.07-17.73 6.15-23.16Zm-9.92-3.21c1.88 0 3.76.17 5.62.5a3.6 3.6 0 0 1 2.94 2.94c.46 2.61.6 5.27.4 7.92L26.85 6.76c.75-.06 1.51-.09 2.3-.09ZM9.99 37.84a3.61 3.61 0 0 1-2.95-2.95c-.46-2.61-.6-5.27-.4-7.92l11.27 11.27c-2.64.2-5.3.06-7.92-.4Zm21.96-5.77a21.63 21.63 0 0 1-12.3 5.97L6.85 25.23a21.65 21.65 0 0 1 5.96-12.3c2.1-2.1 6.06-5.04 12.3-5.97l12.81 12.81a21.65 21.65 0 0 1-5.97 12.3Zm-3.58-15.55a.69.69 0 0 1 0 .97l-2.95 2.95L26.99 22a.69.69 0 0 1-.97.97l-1.57-1.57-3.16 3.15 1.58 1.58a.69.69 0 1 1-.97.97l-1.58-1.58-2.95 2.95a.69.69 0 1 1-.97-.97l2.95-2.95L17.77 23a.69.69 0 1 1 .98-.97l1.57 1.57 3.15-3.15-1.57-1.58a.69.69 0 1 1 .97-.97l1.57 1.57 2.95-2.94a.69.69 0 0 1 .98 0Z"/></svg>
